packages/react-icons/icons/wifi-question.svg

<svg width="25" height="25" viewBox="0 0 25 25" xmlns="http://www.w3.org/2000/svg"><path d="M11.6869 18.2841C12.0967 18.6938 12.761 18.6938 13.1707 18.2841L15.0851 16.3698C15.2221 16.2327 15.1948 16.0038 15.0399 15.8872C14.062 15.1508 13.4297 13.9801 13.4297 12.6616C13.4297 10.4331 15.2363 8.62646 17.4648 8.62646C18.7833 8.62646 19.954 9.25879 20.6904 10.2367C20.807 10.3915 21.0359 10.4189 21.173 10.2819L21.1955 10.2594C21.6099 9.84496 21.6062 9.16731 21.1546 8.79382C16.1312 4.63968 8.7998 4.69032 3.83295 8.94644C3.39293 9.32349 3.39478 9.99198 3.80453 10.4017L11.6869 18.2841Z"/><path d="M16.5487 15.903C16.5487 15.9624 16.5969 16.0106 16.6562 16.0106H17.8184C17.8778 16.0106 17.9259 15.9624 17.9259 15.903C17.9287 15.6108 17.9631 15.3654 18.0293 15.1669C18.0982 14.9656 18.203 14.7905 18.3436 14.6416C18.487 14.4928 18.6703 14.3494 18.8936 14.2115C19.1473 14.0599 19.3665 13.8876 19.5512 13.6946C19.7359 13.5016 19.8779 13.281 19.9772 13.0329C20.0792 12.7847 20.1302 12.5035 20.1302 12.1892C20.1302 11.7232 20.0172 11.3207 19.7911 10.9816C19.5678 10.6397 19.2548 10.3764 18.8523 10.1916C18.4525 10.0069 17.9893 9.91455 17.4627 9.91455C16.9802 9.91455 16.5391 10.0028 16.1393 10.1792C15.7423 10.3557 15.4224 10.6204 15.1798 10.9733C15.0659 11.1409 14.9774 11.3279 14.9145 11.5341C14.7921 11.9352 15.1453 12.2884 15.5647 12.2884H15.5948C15.9743 12.2884 16.2502 11.9624 16.4619 11.6474C16.5777 11.4765 16.7224 11.3496 16.8961 11.2669C17.0726 11.1814 17.2587 11.1387 17.4544 11.1387C17.6667 11.1387 17.8583 11.1828 18.0293 11.2711C18.203 11.3593 18.3408 11.4834 18.4429 11.6433C18.5449 11.8032 18.5959 11.992 18.5959 12.2099C18.5959 12.4029 18.5573 12.5779 18.4801 12.7351C18.4029 12.8895 18.2967 13.0301 18.1616 13.1569C18.0293 13.281 17.879 13.3954 17.7108 13.5002C17.4655 13.6518 17.2573 13.8186 17.0864 14.0006C16.9154 14.1798 16.7831 14.4169 16.6893 14.7119C16.5983 15.007 16.5515 15.404 16.5487 15.903Z"/><path d="M16.6273 18.3265C16.8065 18.503 17.0202 18.5912 17.2683 18.5912C17.4337 18.5912 17.584 18.5512 17.7191 18.4713C17.857 18.3886 17.9673 18.2783 18.05 18.1404C18.1354 18.0026 18.1782 17.8496 18.1782 17.6814C18.1782 17.4332 18.0872 17.2209 17.9052 17.0445C17.726 16.868 17.5137 16.7798 17.2683 16.7798C17.0202 16.7798 16.8065 16.868 16.6273 17.0445C16.4481 17.2209 16.3585 17.4332 16.3585 17.6814C16.3585 17.935 16.4481 18.1501 16.6273 18.3265Z"/></svg>

<svg xmlns="http://www.w3.org/2000/svg" width="25" height="25"><path d="M11.687 18.284c.41.41 1.074.41 1.484 0l1.914-1.914c.137-.137.11-.366-.045-.483a4.035 4.035 0 1 1 5.65-5.65c.117.155.346.182.483.045l.023-.023c.414-.414.41-1.092-.041-1.465C16.13 4.64 8.8 4.69 3.833 8.946c-.44.377-.438 1.046-.028 1.456l7.882 7.882Z"/><path d="M16.549 15.903c0 .06.048.108.107.108h1.162c.06 0 .108-.049.108-.108.003-.292.037-.538.103-.736.07-.201.174-.377.315-.525.143-.15.326-.293.55-.43.253-.152.473-.324.657-.517a2.05 2.05 0 0 0 .426-.662c.102-.248.153-.53.153-.844 0-.466-.113-.868-.339-1.207a2.173 2.173 0 0 0-.939-.79c-.4-.185-.863-.277-1.39-.277-.482 0-.923.088-1.323.264a2.25 2.25 0 0 0-.96.794 2.06 2.06 0 0 0-.264.561c-.123.401.23.754.65.754h.03c.38 0 .655-.326.867-.64.116-.171.26-.298.434-.381.177-.086.363-.128.558-.128.213 0 .404.044.575.132.174.088.312.212.414.372.102.16.153.349.153.567 0 .193-.039.368-.116.525a1.493 1.493 0 0 1-.318.422 2.89 2.89 0 0 1-.451.343 3.047 3.047 0 0 0-.625.5c-.17.18-.303.417-.397.712-.09.295-.137.692-.14 1.191ZM16.627 18.326c.18.177.393.265.641.265a.87.87 0 0 0 .451-.12.95.95 0 0 0 .331-.33.854.854 0 0 0 .128-.46.855.855 0 0 0-.273-.637.877.877 0 0 0-.637-.264.882.882 0 0 0-.64.264.861.861 0 0 0-.27.637c0 .254.09.47.27.645Z"/></svg>
